X: 14769
T: Gan Ainm
R: waltz
M: 3/4
K: Dmajor
f ag|f2 d2 =cB-|B2 g3 B|A2 a2 f2|e3 c de|f2 e2 f2|
g2 B3 B|A2 d3 e|d3 f ag|f2 d2 =cB-|B2 g3 B|A2 a2 f2|
e3 c de|f2 e2 f2||g2B3 B|A2 d3 e|d3 A FG|
Affe cd|eddA FA|ecdB cA|G3 F EF|Geed Bd|
dccG EG|dBcA BG|F3 E FG|Affe cd|eddF Ad|fegf ef|
B3 d ef|g3 f ed|c2 a3 B|A2 d3 e|1 d3:|
[2d3 e f2|g3 f ed|c2 a3 B|A2 d2 c2|d6||

